!!! OTL: Berkowitz593
!!! Chapter: 1
!!! Section: V
!!! Page: 150
!!! Mode: 
!!! Encoder: AR
**kern
*staff1
=1-
!!pagebreak:original
*clefC3
*k[]
*C:
*M4/4
4b-\
4a\
2e-\
=2
*M5/4
8r
8b-\L
8a\
8b-\
8a\
8g#\J
2d\
=3
2gn\
4c\
8r
8A\L
8c#\
8e#\J
=4
*M4/4
2en\
2g#\
=5
!!linebreak:original
4b\
4a\
2e\
=6
8r
8b\
8a#\L
8b\J
8an\L
8g\J
4c#\
=7
4B/
4f#\
2fn\
=8
8r
8e\
8g#\L
8cc\J
2b\
=9
2f\
2c\
==
*-
